wp-content/themes/hoverboard-v2/dist/img/mdi-links.svg

<svg id="Layer_1" xmlns="http://www.w3.org/2000/svg" viewBox="0 0 18.5 18.5"><style>.st0{fill:#24408f}</style><title>icon-link</title><path class="st0" d="M8.2 10.3c.3.3.3.7 0 1-.3.3-.7.3-1 0-1.4-1.4-1.4-3.7 0-5.2l2.6-2.6C11.2 2 13.5 2 15 3.4s1.5 3.7.1 5.2l-.1.1-1.1 1.1c0-.6-.1-1.2-.3-1.8l.3-.4c.9-.8.9-2.2.1-3.1s-2.2-.9-3.1-.1l-.1.1-2.6 2.7c-.8.8-.8 2.2 0 3.1m2.1-3.1c.3-.3.7-.3 1 0 1.4 1.4 1.4 3.7 0 5.2L8.7 15c-1.4 1.4-3.7 1.4-5.2 0S2 11.3 3.4 9.8l.1-.1 1.1-1.1c0 .6.1 1.2.3 1.8l-.3.3c-.8.9-.8 2.3.1 3.1.8.8 2.1.8 3 0l2.6-2.6c.9-.9.9-2.2 0-3.1-.3-.2-.3-.6 0-.9z"/></svg>

<?xml version="1.0" encoding="utf-8"?>
<!-- Generator: Adobe Illustrator 19.2.1, SVG Export Plug-In . SVG Version: 6.00 Build 0)  -->
<svg version="1.1" id="Layer_1" xmlns="http://www.w3.org/2000/svg" xmlns:xlink="http://www.w3.org/1999/xlink" x="0px" y="0px"
	 viewBox="0 0 18.5 18.5" style="enable-background:new 0 0 18.5 18.5;" xml:space="preserve">
<style type="text/css">
	.st0{fill:#24408F;}
</style>
<title>icon-link</title>
<path class="st0" d="M8.2,10.3c0.3,0.3,0.3,0.7,0,1c0,0,0,0,0,0c-0.3,0.3-0.7,0.3-1,0c0,0,0,0,0,0c-1.4-1.4-1.4-3.7,0-5.2l2.6-2.6
	c1.4-1.5,3.7-1.5,5.2-0.1s1.5,3.7,0.1,5.2c0,0-0.1,0.1-0.1,0.1l-1.1,1.1c0-0.6-0.1-1.2-0.3-1.8l0.3-0.4c0.9-0.8,0.9-2.2,0.1-3.1
	s-2.2-0.9-3.1-0.1c0,0-0.1,0.1-0.1,0.1L8.2,7.2C7.4,8,7.4,9.4,8.2,10.3 M10.3,7.2c0.3-0.3,0.7-0.3,1,0c0,0,0,0,0,0
	c1.4,1.4,1.4,3.7,0,5.2l-2.6,2.6C7.3,16.4,5,16.4,3.5,15s-1.5-3.7-0.1-5.2c0,0,0.1-0.1,0.1-0.1l1.1-1.1c0,0.6,0.1,1.2,0.3,1.8
	l-0.3,0.3c-0.8,0.9-0.8,2.3,0.1,3.1c0.8,0.8,2.1,0.8,3,0l2.6-2.6c0.9-0.9,0.9-2.2,0-3.1C10,7.9,10,7.5,10.3,7.2
	C10.3,7.2,10.3,7.2,10.3,7.2z"/>
</svg>
